images/3232701.svg

<?xml version="1.0" encoding="UTF-8"?>
<svg xmlns="http://www.w3.org/2000/svg" xmlns:xlink="http://www.w3.org/1999/xlink" width="300pt" height="300pt" viewBox="0 0 300 300" version="1.1">
<defs>
<g>
<symbol overflow="visible" id="glyph0-0">
<path style="stroke:none;" d="M 0.640625 2.296875 L 0.640625 -9.171875 L 7.140625 -9.171875 L 7.140625 2.296875 Z M 1.375 1.578125 L 6.421875 1.578125 L 6.421875 -8.4375 L 1.375 -8.4375 Z M 1.375 1.578125 "/>
</symbol>
<symbol overflow="visible" id="glyph0-1">
<path style="stroke:none;" d="M 1.28125 -9.484375 L 3 -9.484375 L 7.203125 -1.546875 L 7.203125 -9.484375 L 8.453125 -9.484375 L 8.453125 0 L 6.71875 0 L 2.515625 -7.921875 L 2.515625 0 L 1.28125 0 Z M 1.28125 -9.484375 "/>
</symbol>
<symbol overflow="visible" id="glyph0-2">
<path style="stroke:none;" d="M 1.28125 -9.484375 L 2.5625 -9.484375 L 2.5625 -5.59375 L 7.21875 -5.59375 L 7.21875 -9.484375 L 8.5 -9.484375 L 8.5 0 L 7.21875 0 L 7.21875 -4.515625 L 2.5625 -4.515625 L 2.5625 0 L 1.28125 0 Z M 1.28125 -9.484375 "/>
</symbol>
<symbol overflow="visible" id="glyph0-3">
<path style="stroke:none;" d="M 5.125 -8.609375 C 4.1875 -8.609375 3.441406 -8.257812 2.890625 -7.5625 C 2.347656 -6.875 2.078125 -5.929688 2.078125 -4.734375 C 2.078125 -3.535156 2.347656 -2.585938 2.890625 -1.890625 C 3.441406 -1.203125 4.1875 -0.859375 5.125 -0.859375 C 6.050781 -0.859375 6.785156 -1.203125 7.328125 -1.890625 C 7.878906 -2.585938 8.15625 -3.535156 8.15625 -4.734375 C 8.15625 -5.929688 7.878906 -6.875 7.328125 -7.5625 C 6.785156 -8.257812 6.050781 -8.609375 5.125 -8.609375 Z M 5.125 -9.65625 C 6.445312 -9.65625 7.503906 -9.207031 8.296875 -8.3125 C 9.097656 -7.414062 9.5 -6.222656 9.5 -4.734375 C 9.5 -3.234375 9.097656 -2.035156 8.296875 -1.140625 C 7.503906 -0.253906 6.445312 0.1875 5.125 0.1875 C 3.789062 0.1875 2.722656 -0.253906 1.921875 -1.140625 C 1.128906 -2.035156 0.734375 -3.234375 0.734375 -4.734375 C 0.734375 -6.222656 1.128906 -7.414062 1.921875 -8.3125 C 2.722656 -9.207031 3.789062 -9.65625 5.125 -9.65625 Z M 5.125 -9.65625 "/>
</symbol>
</g>
</defs>
<g id="surface42177">
<rect x="0" y="0" width="300" height="300" style="fill:rgb(100%,100%,100%);fill-opacity:1;stroke:none;"/>
<path style="fill:none;stroke-width:1.2;stroke-linecap:butt;stroke-linejoin:miter;stroke:rgb(0%,0%,0%);stroke-opacity:1;stroke-miterlimit:10;" d="M 112.476562 264.75 L 95.316406 236.40625 "/>
<path style="fill:none;stroke-width:1.2;stroke-linecap:butt;stroke-linejoin:miter;stroke:rgb(0%,0%,0%);stroke-opacity:1;stroke-miterlimit:10;" d="M 95.316406 236.40625 L 103.296875 221.890625 "/>
<path style="fill:none;stroke-width:1.2;stroke-linecap:butt;stroke-linejoin:miter;stroke:rgb(0%,0%,100%);stroke-opacity:1;stroke-miterlimit:10;" d="M 103.296875 221.890625 L 111.28125 207.375 "/>
<path style="fill:none;stroke-width:1.2;stroke-linecap:butt;stroke-linejoin:miter;stroke:rgb(0%,0%,100%);stroke-opacity:1;stroke-miterlimit:10;" d="M 111.28125 207.375 L 102.703125 193.203125 "/>
<path style="fill:none;stroke-width:1.2;stroke-linecap:butt;stroke-linejoin:miter;stroke:rgb(0%,0%,0%);stroke-opacity:1;stroke-miterlimit:10;" d="M 102.703125 193.203125 L 94.121094 179.03125 "/>
<path style=" stroke:none;fill-rule:nonzero;fill:rgb(100%,100%,100%);fill-opacity:1;" d="M 101.28125 199.375 L 121.28125 199.375 L 121.28125 215.375 L 101.28125 215.375 Z M 101.28125 199.375 "/>
<g style="fill:rgb(0%,0%,100%);fill-opacity:1;">
  <use xlink:href="#glyph0-1" x="101.28125" y="211.750977"/>
  <use xlink:href="#glyph0-2" x="111.250977" y="211.750977"/>
</g>
<path style="fill:none;stroke-width:1.2;stroke-linecap:butt;stroke-linejoin:miter;stroke:rgb(0%,0%,0%);stroke-opacity:1;stroke-miterlimit:10;" d="M 94.121094 179.03125 L 77.558594 179.378906 "/>
<path style="fill:none;stroke-width:1.2;stroke-linecap:butt;stroke-linejoin:miter;stroke:rgb(0%,0%,100%);stroke-opacity:1;stroke-miterlimit:10;" d="M 77.558594 179.378906 L 60.996094 179.722656 "/>
<path style="fill:none;stroke-width:1.2;stroke-linecap:butt;stroke-linejoin:miter;stroke:rgb(0%,0%,0%);stroke-opacity:1;stroke-miterlimit:10;" d="M 90.644531 171.308594 L 77.394531 171.582031 "/>
<path style="fill:none;stroke-width:1.2;stroke-linecap:butt;stroke-linejoin:miter;stroke:rgb(0%,0%,100%);stroke-opacity:1;stroke-miterlimit:10;" d="M 77.394531 171.582031 L 64.144531 171.859375 "/>
<path style="fill:none;stroke-width:1.2;stroke-linecap:butt;stroke-linejoin:miter;stroke:rgb(0%,0%,100%);stroke-opacity:1;stroke-miterlimit:10;" d="M 110.085938 150 L 102.105469 164.515625 "/>
<path style="fill:none;stroke-width:1.2;stroke-linecap:butt;stroke-linejoin:miter;stroke:rgb(0%,0%,0%);stroke-opacity:1;stroke-miterlimit:10;" d="M 102.105469 164.515625 L 94.121094 179.03125 "/>
<path style="fill:none;stroke-width:1.2;stroke-linecap:butt;stroke-linejoin:miter;stroke:rgb(0%,0%,100%);stroke-opacity:1;stroke-miterlimit:10;" d="M 60.996094 179.722656 L 52.414062 165.550781 "/>
<path style="fill:none;stroke-width:1.2;stroke-linecap:butt;stroke-linejoin:miter;stroke:rgb(0%,0%,0%);stroke-opacity:1;stroke-miterlimit:10;" d="M 52.414062 165.550781 L 43.835938 151.378906 "/>
<path style=" stroke:none;fill-rule:nonzero;fill:rgb(100%,100%,100%);fill-opacity:1;" d="M 55.996094 171.722656 L 65.996094 171.722656 L 65.996094 187.722656 L 55.996094 187.722656 Z M 55.996094 171.722656 "/>
<g style="fill:rgb(0%,0%,100%);fill-opacity:1;">
  <use xlink:href="#glyph0-1" x="55.996094" y="184.098633"/>
</g>
<path style="fill:none;stroke-width:1.2;stroke-linecap:butt;stroke-linejoin:miter;stroke:rgb(0%,0%,0%);stroke-opacity:1;stroke-miterlimit:10;" d="M 43.835938 151.378906 L 59.800781 122.347656 "/>
<path style="fill:none;stroke-width:1.2;stroke-linecap:butt;stroke-linejoin:miter;stroke:rgb(0%,0%,0%);stroke-opacity:1;stroke-miterlimit:10;" d="M 52.261719 152.234375 L 65.035156 129.007812 "/>
<path style="fill:none;stroke-width:1.2;stroke-linecap:butt;stroke-linejoin:miter;stroke:rgb(0%,0%,0%);stroke-opacity:1;stroke-miterlimit:10;" d="M 59.800781 122.347656 L 92.925781 121.65625 "/>
<path style="fill:none;stroke-width:1.2;stroke-linecap:butt;stroke-linejoin:miter;stroke:rgb(0%,0%,100%);stroke-opacity:1;stroke-miterlimit:10;" d="M 42.640625 94.003906 L 51.222656 108.175781 "/>
<path style="fill:none;stroke-width:1.2;stroke-linecap:butt;stroke-linejoin:miter;stroke:rgb(0%,0%,0%);stroke-opacity:1;stroke-miterlimit:10;" d="M 51.222656 108.175781 L 59.800781 122.347656 "/>
<path style="fill:none;stroke-width:1.2;stroke-linecap:butt;stroke-linejoin:miter;stroke:rgb(0%,0%,0%);stroke-opacity:1;stroke-miterlimit:10;" d="M 92.925781 121.65625 L 101.507812 135.828125 "/>
<path style="fill:none;stroke-width:1.2;stroke-linecap:butt;stroke-linejoin:miter;stroke:rgb(0%,0%,100%);stroke-opacity:1;stroke-miterlimit:10;" d="M 101.507812 135.828125 L 110.085938 150 "/>
<path style="fill:none;stroke-width:1.2;stroke-linecap:butt;stroke-linejoin:miter;stroke:rgb(0%,0%,0%);stroke-opacity:1;stroke-miterlimit:10;" d="M 87.972656 128.53125 L 94.835938 139.867188 "/>
<path style="fill:none;stroke-width:1.2;stroke-linecap:butt;stroke-linejoin:miter;stroke:rgb(0%,0%,100%);stroke-opacity:1;stroke-miterlimit:10;" d="M 94.835938 139.867188 L 101.703125 151.203125 "/>
<path style="fill:none;stroke-width:1.2;stroke-linecap:butt;stroke-linejoin:miter;stroke:rgb(0%,0%,0%);stroke-opacity:1;stroke-miterlimit:10;" d="M 92.925781 121.65625 L 100.910156 107.140625 "/>
<path style="fill:none;stroke-width:1.2;stroke-linecap:butt;stroke-linejoin:miter;stroke:rgb(0%,0%,100%);stroke-opacity:1;stroke-miterlimit:10;" d="M 100.910156 107.140625 L 108.890625 92.625 "/>
<path style=" stroke:none;fill-rule:nonzero;fill:rgb(100%,100%,100%);fill-opacity:1;" d="M 105.085938 142 L 115.085938 142 L 115.085938 158 L 105.085938 158 Z M 105.085938 142 "/>
<g style="fill:rgb(0%,0%,100%);fill-opacity:1;">
  <use xlink:href="#glyph0-1" x="105.085938" y="154.375977"/>
</g>
<path style="fill:none;stroke-width:1.2;stroke-linecap:butt;stroke-linejoin:miter;stroke:rgb(0%,0%,100%);stroke-opacity:1;stroke-miterlimit:10;" d="M 108.890625 92.625 L 100.3125 78.453125 "/>
<path style="fill:none;stroke-width:1.2;stroke-linecap:butt;stroke-linejoin:miter;stroke:rgb(0%,0%,0%);stroke-opacity:1;stroke-miterlimit:10;" d="M 100.3125 78.453125 L 91.730469 64.28125 "/>
<path style="fill:none;stroke-width:1.2;stroke-linecap:butt;stroke-linejoin:miter;stroke:rgb(0%,0%,100%);stroke-opacity:1;stroke-miterlimit:10;" d="M 108.890625 92.625 L 125.453125 92.28125 "/>
<path style="fill:none;stroke-width:1.2;stroke-linecap:butt;stroke-linejoin:miter;stroke:rgb(0%,0%,0%);stroke-opacity:1;stroke-miterlimit:10;" d="M 125.453125 92.28125 L 142.015625 91.933594 "/>
<path style=" stroke:none;fill-rule:nonzero;fill:rgb(100%,100%,100%);fill-opacity:1;" d="M 103.890625 84.625 L 113.890625 84.625 L 113.890625 100.625 L 103.890625 100.625 Z M 103.890625 84.625 "/>
<g style="fill:rgb(0%,0%,100%);fill-opacity:1;">
  <use xlink:href="#glyph0-1" x="103.890625" y="97.000977"/>
</g>
<path style="fill:none;stroke-width:1.2;stroke-linecap:butt;stroke-linejoin:miter;stroke:rgb(0%,0%,0%);stroke-opacity:1;stroke-miterlimit:10;" d="M 95.148438 66.160156 L 103.128906 51.644531 "/>
<path style="fill:none;stroke-width:1.2;stroke-linecap:butt;stroke-linejoin:miter;stroke:rgb(100%,0%,0%);stroke-opacity:1;stroke-miterlimit:10;" d="M 103.128906 51.644531 L 111.113281 37.128906 "/>
<path style="fill:none;stroke-width:1.2;stroke-linecap:butt;stroke-linejoin:miter;stroke:rgb(0%,0%,0%);stroke-opacity:1;stroke-miterlimit:10;" d="M 88.316406 62.402344 L 96.300781 47.886719 "/>
<path style="fill:none;stroke-width:1.2;stroke-linecap:butt;stroke-linejoin:miter;stroke:rgb(100%,0%,0%);stroke-opacity:1;stroke-miterlimit:10;" d="M 96.300781 47.886719 L 104.28125 33.371094 "/>
<path style="fill:none;stroke-width:1.2;stroke-linecap:butt;stroke-linejoin:miter;stroke:rgb(0%,0%,0%);stroke-opacity:1;stroke-miterlimit:10;" d="M 91.730469 64.28125 L 58.605469 64.972656 "/>
<path style=" stroke:none;fill-rule:nonzero;fill:rgb(100%,100%,100%);fill-opacity:1;" d="M 102.695312 27.25 L 113.695312 27.25 L 113.695312 43.25 L 102.695312 43.25 Z M 102.695312 27.25 "/>
<g style="fill:rgb(100%,0%,0%);fill-opacity:1;">
  <use xlink:href="#glyph0-3" x="102.695312" y="39.625977"/>
</g>
<path style="fill:none;stroke-width:1.2;stroke-linecap:butt;stroke-linejoin:miter;stroke:rgb(0%,0%,0%);stroke-opacity:1;stroke-miterlimit:10;" d="M 58.605469 64.972656 L 50.625 79.488281 "/>
<path style="fill:none;stroke-width:1.2;stroke-linecap:butt;stroke-linejoin:miter;stroke:rgb(0%,0%,100%);stroke-opacity:1;stroke-miterlimit:10;" d="M 50.625 79.488281 L 42.640625 94.003906 "/>
<path style="fill:none;stroke-width:1.2;stroke-linecap:butt;stroke-linejoin:miter;stroke:rgb(0%,0%,0%);stroke-opacity:1;stroke-miterlimit:10;" d="M 63.839844 71.632812 L 57.453125 83.246094 "/>
<path style="fill:none;stroke-width:1.2;stroke-linecap:butt;stroke-linejoin:miter;stroke:rgb(0%,0%,100%);stroke-opacity:1;stroke-miterlimit:10;" d="M 57.453125 83.246094 L 51.070312 94.859375 "/>
<path style="fill:none;stroke-width:1.2;stroke-linecap:butt;stroke-linejoin:miter;stroke:rgb(0%,0%,0%);stroke-opacity:1;stroke-miterlimit:10;" d="M 58.605469 64.972656 L 41.445312 36.628906 "/>
<path style=" stroke:none;fill-rule:nonzero;fill:rgb(100%,100%,100%);fill-opacity:1;" d="M 37.640625 86.003906 L 47.640625 86.003906 L 47.640625 102.003906 L 37.640625 102.003906 Z M 37.640625 86.003906 "/>
<g style="fill:rgb(0%,0%,100%);fill-opacity:1;">
  <use xlink:href="#glyph0-1" x="37.640625" y="98.379883"/>
</g>
<path style="fill:none;stroke-width:1.2;stroke-linecap:butt;stroke-linejoin:miter;stroke:rgb(0%,0%,0%);stroke-opacity:1;stroke-miterlimit:10;" d="M 142.015625 91.933594 L 159.175781 120.277344 "/>
<path style="fill:none;stroke-width:1.2;stroke-linecap:butt;stroke-linejoin:miter;stroke:rgb(0%,0%,0%);stroke-opacity:1;stroke-miterlimit:10;" d="M 159.175781 120.277344 L 192.304688 119.589844 "/>
<path style="fill:none;stroke-width:1.2;stroke-linecap:butt;stroke-linejoin:miter;stroke:rgb(0%,0%,0%);stroke-opacity:1;stroke-miterlimit:10;" d="M 192.304688 119.589844 L 209.464844 147.929688 "/>
<path style="fill:none;stroke-width:1.2;stroke-linecap:butt;stroke-linejoin:miter;stroke:rgb(0%,0%,0%);stroke-opacity:1;stroke-miterlimit:10;" d="M 200.6875 118.382812 L 214.414062 141.058594 "/>
<path style="fill:none;stroke-width:1.2;stroke-linecap:butt;stroke-linejoin:miter;stroke:rgb(0%,0%,0%);stroke-opacity:1;stroke-miterlimit:10;" d="M 208.269531 90.554688 L 192.304688 119.589844 "/>
<path style="fill:none;stroke-width:1.2;stroke-linecap:butt;stroke-linejoin:miter;stroke:rgb(0%,0%,0%);stroke-opacity:1;stroke-miterlimit:10;" d="M 209.464844 147.929688 L 242.589844 147.242188 "/>
<path style="fill:none;stroke-width:1.2;stroke-linecap:butt;stroke-linejoin:miter;stroke:rgb(0%,0%,0%);stroke-opacity:1;stroke-miterlimit:10;" d="M 242.589844 147.242188 L 258.554688 118.207031 "/>
<path style="fill:none;stroke-width:1.2;stroke-linecap:butt;stroke-linejoin:miter;stroke:rgb(0%,0%,0%);stroke-opacity:1;stroke-miterlimit:10;" d="M 237.355469 140.582031 L 250.125 117.355469 "/>
<path style="fill:none;stroke-width:1.2;stroke-linecap:butt;stroke-linejoin:miter;stroke:rgb(0%,0%,0%);stroke-opacity:1;stroke-miterlimit:10;" d="M 258.554688 118.207031 L 241.394531 89.867188 "/>
<path style="fill:none;stroke-width:1.2;stroke-linecap:butt;stroke-linejoin:miter;stroke:rgb(0%,0%,0%);stroke-opacity:1;stroke-miterlimit:10;" d="M 241.394531 89.867188 L 208.269531 90.554688 "/>
<path style="fill:none;stroke-width:1.2;stroke-linecap:butt;stroke-linejoin:miter;stroke:rgb(0%,0%,0%);stroke-opacity:1;stroke-miterlimit:10;" d="M 238.242188 97.730469 L 211.742188 98.28125 "/>
</g>
</svg>

<svg xmlns="http://www.w3.org/2000/svg" xmlns:xlink="http://www.w3.org/1999/xlink" width="300pt" height="300pt" viewBox="0 0 300 300"><defs><symbol overflow="visible"><path d="M.64 2.297v-11.47h6.5v11.47zm.735-.72h5.047V-8.436H1.375zm0 0"/></symbol><symbol overflow="visible" id="a"><path d="M1.28-9.484H3l4.203 7.937v-7.937h1.25V0H6.72L2.515-7.922V0H1.28zm0 0"/></symbol><symbol overflow="visible" id="b"><path d="M1.28-9.484h1.282v3.89H7.22v-3.89H8.5V0H7.22v-4.516H2.562V0H1.28zm0 0"/></symbol><symbol overflow="visible" id="c"><path d="M5.125-8.61c-.938 0-1.684.352-2.234 1.047-.542.688-.812 1.633-.812 2.83 0 1.198.27 2.147.813 2.842.55.687 1.297 1.03 2.235 1.03.926 0 1.66-.343 2.203-1.03.55-.696.828-1.645.828-2.844 0-1.196-.277-2.14-.828-2.829-.543-.695-1.277-1.046-2.203-1.046zm0-1.046c1.32 0 2.38.45 3.172 1.344.8.898 1.203 2.09 1.203 3.578 0 1.5-.402 2.7-1.203 3.593C7.504-.255 6.445.186 5.125.186c-1.336 0-2.402-.44-3.203-1.328C1.13-2.036.734-3.235.734-4.735c0-1.49.395-2.68 1.188-3.579.8-.894 1.867-1.343 3.203-1.343zm0 0"/></symbol></defs><g><path fill="#fff" d="M0 0h300v300H0z"/><path d="M112.477 264.75l-17.16-28.344M95.316 236.406l7.98-14.515" stroke-width="1.2" stroke="#000" stroke-miterlimit="10" fill="none"/><path d="M103.297 221.89l7.984-14.515M111.28 207.375l-8.577-14.172" stroke-width="1.2" stroke="#00f" stroke-miterlimit="10" fill="none"/><path d="M102.703 193.203L94.12 179.03" stroke-width="1.2" stroke="#000" stroke-miterlimit="10" fill="none"/><path d="M101.28 199.375h20v16h-20zm0 0" fill="#fff"/><g fill="#00f"><use xlink:href="#a" x="101.281" y="211.751"/><use xlink:href="#b" x="111.251" y="211.751"/></g><path d="M94.12 179.03l-16.56.35" stroke-width="1.2" stroke="#000" stroke-miterlimit="10" fill="none"/><path d="M77.56 179.38l-16.564.343" stroke-width="1.2" stroke="#00f" stroke-miterlimit="10" fill="none"/><path d="M90.645 171.31l-13.25.272" stroke-width="1.2" stroke="#000" stroke-miterlimit="10" fill="none"/><path d="M77.395 171.582l-13.25.277M110.086 150l-7.98 14.516" stroke-width="1.2" stroke="#00f" stroke-miterlimit="10" fill="none"/><path d="M102.105 164.516L94.12 179.03" stroke-width="1.2" stroke="#000" stroke-miterlimit="10" fill="none"/><path d="M60.996 179.723l-8.582-14.172" stroke-width="1.2" stroke="#00f" stroke-miterlimit="10" fill="none"/><path d="M52.414 165.55l-8.578-14.17" stroke-width="1.2" stroke="#000" stroke-miterlimit="10" fill="none"/><path d="M55.996 171.723h10v16h-10zm0 0" fill="#fff"/><use xlink:href="#a" x="55.996" y="184.099" fill="#00f"/><path d="M43.836 151.38L59.8 122.347M52.262 152.234l12.773-23.226M59.8 122.348l33.126-.692" stroke-width="1.2" stroke="#000" stroke-miterlimit="10" fill="none"/><path d="M42.64 94.004l8.583 14.172" stroke-width="1.2" stroke="#00f" stroke-miterlimit="10" fill="none"/><path d="M51.223 108.176l8.578 14.172M92.926 121.656l8.582 14.172" stroke-width="1.2" stroke="#000" stroke-miterlimit="10" fill="none"/><path d="M101.508 135.828L110.086 150" stroke-width="1.2" stroke="#00f" stroke-miterlimit="10" fill="none"/><path d="M87.973 128.53l6.863 11.337" stroke-width="1.2" stroke="#000" stroke-miterlimit="10" fill="none"/><path d="M94.836 139.867l6.867 11.336" stroke-width="1.2" stroke="#00f" stroke-miterlimit="10" fill="none"/><path d="M92.926 121.656l7.984-14.515" stroke-width="1.2" stroke="#000" stroke-miterlimit="10" fill="none"/><path d="M100.91 107.14l7.98-14.515" stroke-width="1.2" stroke="#00f" stroke-miterlimit="10" fill="none"/><path d="M105.086 142h10v16h-10zm0 0" fill="#fff"/><use xlink:href="#a" x="105.086" y="154.376" fill="#00f"/><path d="M108.89 92.625l-8.578-14.172" stroke-width="1.2" stroke="#00f" stroke-miterlimit="10" fill="none"/><path d="M100.313 78.453L91.73 64.28" stroke-width="1.2" stroke="#000" stroke-miterlimit="10" fill="none"/><path d="M108.89 92.625l16.563-.344" stroke-width="1.2" stroke="#00f" stroke-miterlimit="10" fill="none"/><path d="M125.453 92.28l16.563-.346" stroke-width="1.2" stroke="#000" stroke-miterlimit="10" fill="none"/><path d="M103.89 84.625h10v16h-10zm0 0" fill="#fff"/><use xlink:href="#a" x="103.891" y="97.001" fill="#00f"/><path d="M95.148 66.16l7.98-14.515" stroke-width="1.2" stroke="#000" stroke-miterlimit="10" fill="none"/><path d="M103.13 51.645l7.983-14.516" stroke-width="1.2" stroke="#f00" stroke-miterlimit="10" fill="none"/><path d="M88.316 62.402L96.3 47.887" stroke-width="1.2" stroke="#000" stroke-miterlimit="10" fill="none"/><path d="M96.3 47.887l7.98-14.516" stroke-width="1.2" stroke="#f00" stroke-miterlimit="10" fill="none"/><path d="M91.73 64.28l-33.125.693" stroke-width="1.2" stroke="#000" stroke-miterlimit="10" fill="none"/><path d="M102.695 27.25h11v16h-11zm0 0" fill="#fff"/><use xlink:href="#c" x="102.695" y="39.626" fill="#f00"/><path d="M58.605 64.973l-7.98 14.515" stroke-width="1.2" stroke="#000" stroke-miterlimit="10" fill="none"/><path d="M50.625 79.488L42.64 94.004" stroke-width="1.2" stroke="#00f" stroke-miterlimit="10" fill="none"/><path d="M63.84 71.633l-6.387 11.613" stroke-width="1.2" stroke="#000" stroke-miterlimit="10" fill="none"/><path d="M57.453 83.246L51.07 94.86" stroke-width="1.2" stroke="#00f" stroke-miterlimit="10" fill="none"/><path d="M58.605 64.973L41.445 36.63" stroke-width="1.2" stroke="#000" stroke-miterlimit="10" fill="none"/><path d="M37.64 86.004h10v16h-10zm0 0" fill="#fff"/><use xlink:href="#a" x="37.641" y="98.38" fill="#00f"/><path d="M142.016 91.934l17.16 28.343M159.176 120.277l33.13-.687M192.305 119.59l17.16 28.34M200.688 118.383l13.726 22.676M208.27 90.555l-15.965 29.035M209.465 147.93l33.125-.688M242.59 147.242l15.965-29.035M237.355 140.582l12.77-23.227M258.555 118.207l-17.16-28.34M241.395 89.867l-33.125.688M238.242 97.73l-26.5.55" stroke-width="1.2" stroke="#000" stroke-miterlimit="10" fill="none"/></g></svg>
